build/img/svg.svg

<svg xmlns="http://www.w3.org/2000/svg" width="917.554" height="373.295" viewBox="342.223 264.351 917.554 373.295" enable-background="new 342.223 264.351 917.554 373.295"><circle fill="#B37D2B" cx="586.754" cy="584.646" r="6"/><path fill="#B37D2B" d="M384.012 625.646h128v4h-128z"/><circle fill="#B37D2B" cx="384.012" cy="627.646" r="6"/><circle fill="#B37D2B" cx="512.012" cy="627.646" r="6"/><path fill="#fff" d="M442.012 621.646h12v12h-12z"/><path fill="#B37D2B" d="M456.012 635.646h-16v-16h16v16zm-12-4h8v-8h-8v8z"/><path fill="#fff" d="M715.418 616.53h12v12h-12z"/><path fill="#B37D2B" d="M729.418 630.53h-16v-16h16v16zm-12-4h8v-8h-8v8z"/><path fill="#fff" d="M806.543 616.53h12v12h-12z"/><path fill="#B37D2B" d="M820.542 630.53h-16v-16h16v16zm-12-4h8v-8h-8v8z"/><path fill="#fff" d="M1168.52 479.835h12v12h-12z"/><path fill="#B37D2B" d="M1182.52 493.835h-16v-16h16v16zm-12-4h8v-8h-8v8z"/><path fill="#fff" d="M1243.776 418.913h12v12h-12z"/><path fill="#B37D2B" d="M1257.776 432.913h-16v-16h16v16zm-12-4h8v-8h-8v8z"/><path fill="#fff" d="M1168.52 552.54h12v11.997h-12z"/><path fill="#B37D2B" d="M1182.52 566.537h-16V550.54h16v15.997zm-12-4h8v-7.998h-8v7.997z"/><path fill="#fff" d="M1243.776 600.662h12v12h-12z"/><path fill="#B37D2B" d="M1257.776 614.662h-16v-16h16v16zm-12-4h8v-8h-8v8z"/><circle fill="#B37D2B" cx="945.675" cy="558.095" r="6"/><circle fill="#B37D2B" cx="1206.776" cy="273.882" r="6"/><path fill="#B37D2B" d="M1030.585 624.115h168.004v4h-168.005z"/><circle fill="#B37D2B" cx="1030.585" cy="626.115" r="6"/><circle fill="#B37D2B" cx="1198.589" cy="626.115" r="6"/><path fill="#fff" d="M1128.59 620.115h12v12h-12z"/><path fill="#B37D2B" d="M1142.59 634.115h-16v-16h16v16zm-12-4h8v-8h-8v8z"/><circle fill="#B37D2B" cx="507.395" cy="570.279" r="6"/><path fill="#231F20" d="M376.098 552.156c20.478 10.75 53.242 21.498 86.523 21.498 35.837 0 54.773-14.842 54.773-37.373 0-21.5-16.383-33.788-57.852-48.124-57.335-20.478-95.218-52.22-95.218-102.39 0-58.876 49.655-103.415 130.547-103.415 39.42 0 67.577 7.68 88.054 17.407l-17.406 62.46c-13.312-6.655-38.397-16.39-71.672-16.39-33.79 0-50.172 15.875-50.172 33.28 0 22.017 18.945 31.743 63.992 48.642 60.922 22.522 89.086 54.265 89.086 102.898 0 57.85-44.03 106.998-138.742 106.998-39.422 0-78.336-10.75-97.79-21.5l15.878-63.99z"/><path fill="#B37D2B" d="M448.012 629.646c-40.81 0-79.8-11.273-98.756-21.75l-1.344-.742 16.856-67.953 2.26 1.185c19.587 10.283 52.355 21.27 85.593 21.27 33.046 0 52.773-13.223 52.773-35.372 0-19.713-14.786-31.813-56.506-46.235-64.983-23.21-96.563-57.315-96.563-104.28 0-63.052 53.266-105.415 132.547-105.415 34.413 0 64.33 5.922 88.913 17.6l1.52.723-18.51 66.418-2.17-1.084c-14.76-7.38-39.022-16.18-70.776-16.18-33.276 0-48.172 15.71-48.172 31.28 0 19.89 15.654 29.123 62.695 46.77 62.504 23.108 90.383 55.423 90.383 104.77 0 52.69-36.972 108.996-140.74 108.996zm-95.475-24.523c18.98 10.023 56.322 20.523 95.475 20.523 100.82 0 136.742-54.238 136.742-104.998 0-47.423-27.072-78.58-87.78-101.024-45.402-17.03-65.298-26.955-65.298-50.516 0-17.56 16.133-35.28 52.172-35.28 31.02 0 55.088 8.208 70.392 15.536l16.307-58.514c-23.758-10.95-52.57-16.5-85.674-16.5-76.89 0-128.547 40.756-128.547 101.414 0 45.068 30.713 77.943 93.89 100.508 43.69 15.102 59.182 28.19 59.182 50.008 0 24.655-21.226 39.373-56.773 39.373-32.713 0-64.98-10.414-85.19-20.564l-14.898 60.033z"/><path fill="#231F20" d="M731.418 632.53L620.832 287.467h85.492l41.983 145.906c11.773 41.47 23.293 80.383 31.488 123.383 8.703-41.47 20.223-82.422 31.996-121.844l44.03-147.445h82.94l-116.216 345.06h-91.126z"/><path fill="#B37D2B" d="M813.98 624.53h-94.02L608.09 275.467h89.738l45.768 159.18c9.787 34.347 19.078 66.942 26.283 102.212 8.884-40.32 20.075-79.295 29.997-112.52l44.458-148.872h87.21L813.98 624.528zm-91.103-4h88.23L925.98 279.467h-78.664L803.71 425.486c-10.674 35.744-22.818 78.152-31.955 121.682l-2.05 9.775-1.872-9.812c-7.396-38.804-17.443-74.06-28.082-111.388l-3.364-11.822-41.566-144.452h-81.246l109.303 341.06z"/><path fill="#231F20" d="M1259.776 616.662c-24.062 8.188-69.625 19.453-115.188 19.453-62.977 0-108.54-15.875-140.28-46.078-31.228-30.2-48.634-75.256-48.634-125.944.508-114.68 83.96-180.21 197.103-180.21 44.538 0 78.844 8.702 95.733 16.382l-16.383 62.977c-18.938-8.703-41.977-14.852-79.86-14.852-65.02 0-114.68 36.352-114.68 111.61 0 71.67 45.048 113.138 109.048 113.138 17.406 0 31.742-2.047 37.883-4.602v-72.702h-53.24v-60.922h128.5v181.75z"/><path fill="#B37D2B" d="M1134.59 628.115c-62.35 0-108.685-15.25-141.66-46.63-31.767-30.723-49.255-75.962-49.255-127.393.492-110.69 78.646-182.21 199.103-182.21 44.34 0 78.953 8.554 96.562 16.56l1.53.696-17.405 66.916-2.172-.998c-14.86-6.828-37.272-14.668-79.022-14.668-70.555 0-112.68 40.975-112.68 109.61 0 67.515 42.02 111.138 107.047 111.138 16.98 0 29.884-1.934 35.884-3.983v-69.32h-53.24v-64.92h132.5v185.18l-1.356.462c-27.792 9.458-72.816 19.56-115.835 19.56zm8.186-352.233c-118.04 0-194.62 69.955-195.103 178.22 0 50.328 17.055 94.547 48.023 124.498 32.184 30.625 77.62 45.517 138.89 45.517 41.84 0 85.606-9.672 113.19-18.888V426.912h-124.5v56.922h53.24v76.038l-1.23.512c-6.944 2.888-22.116 4.754-38.65 4.754-67.458 0-111.048-45.193-111.048-115.14 0-70.076 44.71-113.61 116.68-113.61 32.126 0 56.474 4.347 78.52 14.058l15.36-59.04c-17.665-7.634-50.934-15.526-93.372-15.526zM352.324 311.765h4v128h-4z"/><circle fill="#B37D2B" cx="354.324" cy="311.765" r="6"/><circle fill="#B37D2B" cx="354.324" cy="439.765" r="6"/><path fill="#fff" d="M348.324 369.765h12v12h-12z"/><path fill="#B37D2B" d="M362.324 383.765h-16v-16h16v16zm-12-4h8v-8h-8v8zM584.754 456.647h4v128h-4z"/><circle fill="#B37D2B" cx="586.754" cy="456.647" r="6"/><path fill="#fff" d="M580.754 514.648h12v12h-12z"/><path fill="#B37D2B" d="M594.754 528.648h-16v-16h16v16zm-12-4h8v-8h-8v8zM420.87 270.35h128v4h-128z"/><circle fill="#B37D2B" cx="420.871" cy="272.351" r="6"/><circle fill="#B37D2B" cx="548.871" cy="272.351" r="6"/><path fill="#fff" d="M478.87 266.35h12v12h-12z"/><path fill="#B37D2B" d="M492.87 280.35h-16v-16h16v16zm-12-4h8v-8h-8v8z"/><path fill="#fff" d="M604.832 271.468h12v12h-12z"/><path fill="#B37D2B" d="M618.832 285.468h-16v-16h16v16zm-12-4h8v-8h-8v8z"/><path fill="#fff" d="M690.324 271.468h12v12h-12z"/><path fill="#B37D2B" d="M704.324 285.468h-16v-16h16v16zm-12-4h8v-8h-8v8z"/><path fill="#fff" d="M763.797 540.757h12v12h-12z"/><path fill="#B37D2B" d="M777.797 554.757h-16v-16h16v16zm-12-4h8v-8h-8v8z"/><path fill="#fff" d="M839.823 271.468h12v12h-12z"/><path fill="#B37D2B" d="M853.823 285.468h-16v-16h16v16zm-12-4h8v-8h-8v8z"/><path fill="#fff" d="M922.76 271.468h12v12h-12z"/><path fill="#B37D2B" d="M936.76 285.468h-16v-16h16v16zm-12-4h8v-8h-8v8z"/><path fill="#fff" d="M1115.276 479.835h12v12h-12z"/><path fill="#B37D2B" d="M1129.276 493.835h-16v-16h16v16zm-12-4h8v-8h-8v8z"/><path fill="#fff" d="M1115.276 418.913h12v12h-12z"/><path fill="#B37D2B" d="M1129.276 432.913h-16v-16h16v16zm-12-4h8v-8h-8v8zM943.675 350.09h4v208.005h-4z"/><circle fill="#B37D2B" cx="945.675" cy="350.089" r="6"/><path fill="#fff" d="M939.675 448.093h12v12h-12z"/><path fill="#B37D2B" d="M953.675 462.093h-16v-16h16v16zm-12-4h8v-8h-8v8zM1038.77 271.882h168.006v4H1038.77z"/><circle fill="#B37D2B" cx="1038.771" cy="273.882" r="6"/><path fill="#fff" d="M1136.776 267.882h12v12h-12z"/><path fill="#B37D2B" d="M1150.776 281.882h-16v-16h16v16zm-12-4h8v-8h-8v8zM1025.59 390.093h4v128h-4z"/><circle fill="#B37D2B" cx="1027.589" cy="390.093" r="6"/><circle fill="#B37D2B" cx="1027.589" cy="518.093" r="6"/><path fill="#fff" d="M1021.59 448.093h12v12h-12z"/><path fill="#B37D2B" d="M1035.59 462.093h-16v-16h16v16zm-12-4h8v-8h-8v8zM431.676 325.108h4v88h-4z"/><circle fill="#B37D2B" cx="433.676" cy="325.108" r="6"/><circle fill="#B37D2B" cx="433.676" cy="413.108" r="6"/><path fill="#fff" d="M427.676 363.108h12v12h-12z"/><path fill="#B37D2B" d="M441.676 377.108h-16v-16h16v16zm-12-4h8v-8h-8v8zM505.395 482.28h4v88h-4z"/><circle fill="#B37D2B" cx="507.395" cy="482.28" r="6"/><path fill="#fff" d="M501.395 520.28h12v12h-12z"/><path fill="#B37D2B" d="M515.395 534.28h-16v-16h16v16zm-12-4h8v-8h-8v8z"/><path fill="#fff" d="M549.52 346.218h12v12h-12z"/><path fill="#B37D2B" d="M563.52 360.218h-16v-16h16v16zm-12-4h8v-8h-8v8z"/><path fill="#fff" d="M566.926 283.757h12v12h-12z"/><path fill="#B37D2B" d="M580.926 297.757h-16v-16h16v16zm-12-4h8v-8h-8v8z"/><path fill="#fff" d="M360.098 536.156h12v12h-12z"/><path fill="#B37D2B" d="M374.098 550.156h-16v-16h16v16zm-12-4h8v-8h-8v8z"/><path fill="#fff" d="M344.223 600.146h12v12h-12z"/><path fill="#B37D2B" d="M358.223 614.146h-16v-16h16v16zm-12-4h8v-8h-8v8z"/><path fill="#fff" d="M1216.128 347.24h12v12h-12z"/><path fill="#B37D2B" d="M1230.128 361.24h-16v-16h16v16zm-12-4h8v-8h-8v8z"/><path fill="#fff" d="M1232.51 284.265h12v12h-12z"/><path fill="#B37D2B" d="M1246.51 298.265h-16v-16h16v16zm-12-4h8v-8h-8v8z"/></svg>

<?xml version="1.0" encoding="utf-8"?>
<!-- Generator: Adobe Illustrator 16.0.0, SVG Export Plug-In . SVG Version: 6.00 Build 0)  -->
<!DOCTYPE svg PUBLIC "-//W3C//DTD SVG 1.1//EN" "http://www.w3.org/Graphics/SVG/1.1/DTD/svg11.dtd">
<svg version="1.1" id="Layer_1" xmlns="http://www.w3.org/2000/svg" xmlns:xlink="http://www.w3.org/1999/xlink" x="0px" y="0px"
	 width="917.554px" height="373.295px" viewBox="342.223 264.351 917.554 373.295"
	 enable-background="new 342.223 264.351 917.554 373.295" xml:space="preserve">
<g>
	<circle fill="#B37D2B" cx="586.754" cy="584.646" r="6"/>
	<rect x="384.012" y="625.646" fill="#B37D2B" width="128" height="4"/>
	<circle fill="#B37D2B" cx="384.012" cy="627.646" r="6"/>
	<circle fill="#B37D2B" cx="512.012" cy="627.646" r="6"/>
	<rect x="442.012" y="621.646" fill="#FFFFFF" width="12" height="12"/>
	<path fill="#B37D2B" d="M456.012,635.646h-16v-16h16V635.646z M444.012,631.646h8v-8h-8V631.646z"/>
	<rect x="715.418" y="616.529" fill="#FFFFFF" width="12" height="12"/>
	<path fill="#B37D2B" d="M729.418,630.529h-16v-16h16V630.529z M717.418,626.529h8v-8h-8V626.529z"/>
	<rect x="806.543" y="616.529" fill="#FFFFFF" width="11.999" height="12"/>
	<path fill="#B37D2B" d="M820.542,630.529h-15.999v-16h15.999V630.529z M808.543,626.529h8v-8h-8V626.529z"/>
	<rect x="1168.52" y="479.835" fill="#FFFFFF" width="12" height="12"/>
	<path fill="#B37D2B" d="M1182.52,493.835h-16v-16h16V493.835z M1170.52,489.835h8v-8h-8V489.835z"/>
	<rect x="1243.776" y="418.913" fill="#FFFFFF" width="12" height="12"/>
	<path fill="#B37D2B" d="M1257.776,432.913h-16v-16h16V432.913z M1245.776,428.913h8v-8h-8V428.913z"/>
	<rect x="1168.52" y="552.539" fill="#FFFFFF" width="12" height="11.998"/>
	<path fill="#B37D2B" d="M1182.52,566.537h-16v-15.998h16V566.537z M1170.52,562.537h8v-7.998h-8V562.537z"/>
	<rect x="1243.776" y="600.662" fill="#FFFFFF" width="12" height="12"/>
	<path fill="#B37D2B" d="M1257.776,614.662h-16v-16h16V614.662z M1245.776,610.662h8v-8h-8V610.662z"/>
	<circle fill="#B37D2B" cx="945.675" cy="558.095" r="6"/>
	<circle fill="#B37D2B" cx="1206.776" cy="273.882" r="6"/>
	<rect x="1030.585" y="624.115" fill="#B37D2B" width="168.004" height="4"/>
	<circle fill="#B37D2B" cx="1030.585" cy="626.115" r="6"/>
	<circle fill="#B37D2B" cx="1198.589" cy="626.115" r="6"/>
	<rect x="1128.589" y="620.115" fill="#FFFFFF" width="12" height="12"/>
	<path fill="#B37D2B" d="M1142.589,634.115h-16v-16h16V634.115z M1130.589,630.115h8v-8h-8V630.115z"/>
	<circle fill="#B37D2B" cx="507.395" cy="570.279" r="6"/>
	<g>
		<path fill="#231F20" d="M376.098,552.156c20.478,10.75,53.242,21.498,86.523,21.498c35.836,0,54.772-14.842,54.772-37.373
			c0-21.5-16.383-33.789-57.852-48.125c-57.336-20.478-95.219-52.219-95.219-102.391c0-58.875,49.655-103.414,130.547-103.414
			c39.422,0,67.578,7.68,88.055,17.406l-17.406,62.461c-13.312-6.656-38.397-16.391-71.672-16.391
			c-33.789,0-50.172,15.875-50.172,33.281c0,22.016,18.945,31.742,63.992,48.641c60.922,22.523,89.086,54.266,89.086,102.899
			c0,57.85-44.031,106.998-138.742,106.998c-39.422,0-78.336-10.75-97.789-21.5L376.098,552.156z"/>
		<path fill="#B37D2B" d="M448.012,629.646c-40.811,0-79.801-11.273-98.756-21.75l-1.344-0.742l16.856-67.953l2.259,1.184
			c19.588,10.283,52.356,21.271,85.594,21.271c33.045,0,52.772-13.224,52.772-35.373c0-19.713-14.786-31.813-56.506-46.235
			c-64.983-23.209-96.563-57.315-96.563-104.281c0-63.051,53.266-105.414,132.547-105.414c34.412,0,64.328,5.922,88.912,17.6
			l1.521,0.723l-18.51,66.418l-2.17-1.084c-14.762-7.381-39.023-16.18-70.777-16.18c-33.276,0-48.172,15.711-48.172,31.281
			c0,19.889,15.654,29.122,62.695,46.768c62.504,23.109,90.383,55.424,90.383,104.772
			C588.754,573.341,551.781,629.646,448.012,629.646z M352.537,605.123c18.981,10.023,56.322,20.523,95.475,20.523
			c100.82,0,136.742-54.238,136.742-104.998c0-47.423-27.072-78.579-87.779-101.024c-45.403-17.031-65.299-26.955-65.299-50.516
			c0-17.561,16.133-35.281,52.172-35.281c31.021,0,55.088,8.209,70.392,15.537l16.307-58.514c-23.758-10.949-52.57-16.5-85.674-16.5
			c-76.889,0-128.547,40.756-128.547,101.414c0,45.068,30.713,77.943,93.891,100.508c43.689,15.102,59.181,28.189,59.181,50.008
			c0,24.655-21.226,39.373-56.773,39.373c-32.713,0-64.979-10.414-85.189-20.564L352.537,605.123z"/>
		<path fill="#231F20" d="M731.418,632.529L620.832,287.468h85.492l41.983,145.906c11.773,41.469,23.293,80.383,31.488,123.383l0,0
			c8.703-41.469,20.223-82.422,31.996-121.844l44.03-147.445h82.938L822.544,632.529H731.418z"/>
		<path fill="#B37D2B" d="M813.98,624.529h-94.021L608.092,275.468h89.738l45.768,159.181
			c9.787,34.346,19.078,66.941,26.283,102.211c8.883-40.321,20.074-79.295,29.996-112.519l44.458-148.873h87.211L813.98,624.529z
			 M722.877,620.529h88.229L925.98,279.468h-78.664L803.71,425.486c-10.674,35.744-22.818,78.152-31.955,121.682l-2.051,9.775
			l-1.871-9.812c-7.396-38.805-17.443-74.061-28.082-111.389l-3.365-11.822L694.82,279.468h-81.246L722.877,620.529z"/>
		<path fill="#231F20" d="M1259.776,616.662c-24.062,8.188-69.625,19.453-115.188,19.453c-62.977,0-108.539-15.875-140.281-46.078
			c-31.227-30.201-48.633-75.256-48.633-125.944c0.508-114.68,83.961-180.211,197.103-180.211c44.538,0,78.844,8.703,95.733,16.383
			l-16.383,62.977c-18.938-8.703-41.977-14.852-79.859-14.852c-65.022,0-114.68,36.352-114.68,111.609
			c0,71.672,45.047,113.139,109.047,113.139c17.406,0,31.742-2.047,37.883-4.602v-72.702h-53.241v-60.922h128.5V616.662z"/>
		<path fill="#B37D2B" d="M1134.589,628.115c-62.348,0-108.684-15.25-141.66-46.629c-31.766-30.724-49.254-75.963-49.254-127.394
			c0.492-110.691,78.646-182.211,199.103-182.211c44.34,0,78.953,8.555,96.562,16.562l1.531,0.695l-17.406,66.916l-2.172-0.998
			c-14.859-6.828-37.272-14.668-79.022-14.668c-70.556,0-112.681,40.975-112.681,109.609c0,67.516,42.021,111.139,107.047,111.139
			c16.98,0,29.884-1.934,35.884-3.983v-69.319h-53.242v-64.922h132.5v185.182l-1.355,0.461
			C1222.632,618.013,1177.608,628.115,1134.589,628.115z M1142.776,275.882c-118.039,0-194.621,69.955-195.103,178.221
			c0,50.327,17.055,94.546,48.023,124.497c32.184,30.625,77.621,45.517,138.891,45.517c41.84,0,85.605-9.672,113.188-18.888V426.913
			h-124.5v56.922h53.241v76.038l-1.229,0.512c-6.945,2.888-22.117,4.754-38.652,4.754c-67.457,0-111.047-45.192-111.047-115.139
			c0-70.076,44.711-113.609,116.681-113.609c32.125,0,56.473,4.346,78.52,14.057l15.359-59.041
			C1218.483,283.774,1185.214,275.882,1142.776,275.882z"/>
		<rect x="352.324" y="311.765" fill="#B37D2B" width="4" height="128"/>
		<circle fill="#B37D2B" cx="354.324" cy="311.765" r="6"/>
		<circle fill="#B37D2B" cx="354.324" cy="439.765" r="6"/>
		<rect x="348.324" y="369.765" fill="#FFFFFF" width="12" height="12"/>
		<path fill="#B37D2B" d="M362.324,383.765h-16v-16h16V383.765z M350.324,379.765h8v-8h-8V379.765z"/>
		<rect x="584.754" y="456.647" fill="#B37D2B" width="4" height="127.999"/>
		<circle fill="#B37D2B" cx="586.754" cy="456.647" r="6"/>
		<rect x="580.754" y="514.648" fill="#FFFFFF" width="12" height="12"/>
		<path fill="#B37D2B" d="M594.754,528.648h-16v-16h16V528.648z M582.754,524.648h8v-8h-8V524.648z"/>
		<rect x="420.871" y="270.351" fill="#B37D2B" width="128" height="4"/>
		<circle fill="#B37D2B" cx="420.871" cy="272.351" r="6"/>
		<circle fill="#B37D2B" cx="548.871" cy="272.351" r="6"/>
		<rect x="478.871" y="266.351" fill="#FFFFFF" width="12" height="12"/>
		<path fill="#B37D2B" d="M492.871,280.351h-16v-16h16V280.351z M480.871,276.351h8v-8h-8V276.351z"/>
		<rect x="604.832" y="271.468" fill="#FFFFFF" width="12" height="12"/>
		<path fill="#B37D2B" d="M618.832,285.468h-16v-16h16V285.468z M606.832,281.468h8v-8h-8V281.468z"/>
		<rect x="690.324" y="271.468" fill="#FFFFFF" width="12" height="12"/>
		<path fill="#B37D2B" d="M704.324,285.468h-16v-16h16V285.468z M692.324,281.468h8v-8h-8V281.468z"/>
		<rect x="763.797" y="540.757" fill="#FFFFFF" width="12" height="12"/>
		<path fill="#B37D2B" d="M777.797,554.757h-16v-16h16V554.757z M765.797,550.757h8v-8h-8V550.757z"/>
		<rect x="839.823" y="271.468" fill="#FFFFFF" width="12" height="12"/>
		<path fill="#B37D2B" d="M853.823,285.468h-16v-16h16V285.468z M841.823,281.468h8v-8h-8V281.468z"/>
		<rect x="922.761" y="271.468" fill="#FFFFFF" width="12" height="12"/>
		<path fill="#B37D2B" d="M936.761,285.468h-16v-16h16V285.468z M924.761,281.468h8v-8h-8V281.468z"/>
		<rect x="1115.276" y="479.835" fill="#FFFFFF" width="12" height="12"/>
		<path fill="#B37D2B" d="M1129.276,493.835h-16v-16h16V493.835z M1117.276,489.835h8v-8h-8V489.835z"/>
		<rect x="1115.276" y="418.913" fill="#FFFFFF" width="12" height="12"/>
		<path fill="#B37D2B" d="M1129.276,432.913h-16v-16h16V432.913z M1117.276,428.913h8v-8h-8V428.913z"/>
		<rect x="943.675" y="350.089" fill="#B37D2B" width="4" height="208.006"/>
		<circle fill="#B37D2B" cx="945.675" cy="350.089" r="6"/>
		<rect x="939.675" y="448.093" fill="#FFFFFF" width="12" height="12"/>
		<path fill="#B37D2B" d="M953.675,462.093h-16v-16h16V462.093z M941.675,458.093h8v-8h-8V458.093z"/>
		<rect x="1038.771" y="271.882" fill="#B37D2B" width="168.005" height="4"/>
		<circle fill="#B37D2B" cx="1038.771" cy="273.882" r="6"/>
		<rect x="1136.776" y="267.882" fill="#FFFFFF" width="12" height="12"/>
		<path fill="#B37D2B" d="M1150.776,281.882h-16v-16h16V281.882z M1138.776,277.882h8v-8h-8V277.882z"/>
		<rect x="1025.589" y="390.093" fill="#B37D2B" width="4" height="128"/>
		<circle fill="#B37D2B" cx="1027.589" cy="390.093" r="6"/>
		<circle fill="#B37D2B" cx="1027.589" cy="518.093" r="6"/>
		<rect x="1021.589" y="448.093" fill="#FFFFFF" width="12" height="12"/>
		<path fill="#B37D2B" d="M1035.589,462.093h-16v-16h16V462.093z M1023.589,458.093h8v-8h-8V458.093z"/>
		<rect x="431.676" y="325.108" fill="#B37D2B" width="4" height="88"/>
		<circle fill="#B37D2B" cx="433.676" cy="325.108" r="6"/>
		<circle fill="#B37D2B" cx="433.676" cy="413.108" r="6"/>
		<rect x="427.676" y="363.108" fill="#FFFFFF" width="12" height="12"/>
		<path fill="#B37D2B" d="M441.676,377.108h-16v-16h16V377.108z M429.676,373.108h8v-8h-8V373.108z"/>
		<rect x="505.395" y="482.28" fill="#B37D2B" width="4" height="87.999"/>
		<circle fill="#B37D2B" cx="507.395" cy="482.28" r="6"/>
		<rect x="501.395" y="520.281" fill="#FFFFFF" width="12" height="12"/>
		<path fill="#B37D2B" d="M515.395,534.281h-16v-16h16V534.281z M503.395,530.281h8v-8h-8V530.281z"/>
		<rect x="549.52" y="346.218" fill="#FFFFFF" width="12" height="12"/>
		<path fill="#B37D2B" d="M563.52,360.218h-16v-16h16V360.218z M551.52,356.218h8v-8h-8V356.218z"/>
		<rect x="566.926" y="283.757" fill="#FFFFFF" width="12" height="12"/>
		<path fill="#B37D2B" d="M580.926,297.757h-16v-16h16V297.757z M568.926,293.757h8v-8h-8V293.757z"/>
		<rect x="360.098" y="536.156" fill="#FFFFFF" width="12" height="12"/>
		<path fill="#B37D2B" d="M374.098,550.156h-16v-16h16V550.156z M362.098,546.156h8v-8h-8V546.156z"/>
	</g>
	<rect x="344.223" y="600.146" fill="#FFFFFF" width="12" height="12"/>
	<path fill="#B37D2B" d="M358.223,614.146h-16v-16h16V614.146z M346.223,610.146h8v-8h-8V610.146z"/>
	<rect x="1216.128" y="347.241" fill="#FFFFFF" width="12" height="12"/>
	<path fill="#B37D2B" d="M1230.128,361.241h-16v-16h16V361.241z M1218.128,357.241h8v-8h-8V357.241z"/>
	<rect x="1232.511" y="284.265" fill="#FFFFFF" width="12" height="12"/>
	<path fill="#B37D2B" d="M1246.511,298.265h-16v-16h16V298.265z M1234.511,294.265h8v-8h-8V294.265z"/>
</g>
</svg>
